T: Old Black Guard, The
M: 4/4
L: 1/8
K: Gmaj
|:(3def|g2 B2 d2 e>d|c2 F2 A3 G| F>GA>B c>de>f|(3gba (3gfe d2 (3def|        g2 B2 d2 e>d|c2 F2 A2 A>G| F>GA>B c>de>f|1 g2 b2 g2:||:d>B|G>A (3Bcd g>fa>g|f2 e2 c3 e|f2 e2 c>Bc>d|e2 d2 B>cB>A      G>AB>d g>fa>g|f2 e2 c2 a>b|c>ba>g f>de>f|1 g2 d2 G2:|
